svgs/solid/face-thinking.svg

<svg xmlns="http://www.w3.org/2000/svg" viewBox="0 0 512 512"><!--! Font Awesome Pro 6.2.0 by @fontawesome - https://fontawesome.com License - https://fontawesome.com/license (Commercial License) Copyright 2022 Fonticons, Inc. --><path d="M512 256c0 141.4-114.6 256-256 256c-10.6 0-21.1-.6-31.4-1.9c4-5.7 7.3-12 9.8-18.8l21-57.7 35.8-13c23.9-8.7 38.3-32 36.8-56.1c-1.3-24.4-16.5-46.1-39.2-55.6L166.2 257.3c-8.1-3.4-17.5 .4-21 8.5s.4 17.5 8.5 21l82.4 34.7L144 355v-3c0-30.9-25.1-56-56-56s-56 25.1-56 56v28C11.6 343.3 0 301 0 256C0 114.6 114.6 0 256 0S512 114.6 512 256zM208.4 176c0-17.7-14.3-32-32-32s-32 14.3-32 32s14.3 32 32 32s32-14.3 32-32zm128 48c17.7 0 32-14.3 32-32s-14.3-32-32-32s-32 14.3-32 32s14.3 32 32 32zM143 121.9c23.5-13.4 52.9-10.6 73.4 7l13.2 11.3c6.7 5.8 16.8 5 22.6-1.7s5-16.8-1.7-22.6l-13.2-11.3C206.4 78.1 162.3 74 127.1 94.1l-7.1 4c-7.7 4.4-10.3 14.2-6 21.8s14.2 10.3 21.8 6l7.1-4zM112 352v48.6l151.8-55.2c12.5-4.5 26.2 1.9 30.8 14.4s-1.9 26.2-14.4 30.8l-49.8 18.1-26.1 71.7c-6.9 19-24.9 31.6-45.1 31.6H112c-26.5 0-48-21.5-48-48V352c0-13.3 10.7-24 24-24s24 10.7 24 24z"/></svg>

<svg xmlns="http://www.w3.org/2000/svg" viewBox="0 0 512 512"><!--! Font Awesome Pro 6.1.2 by @fontawesome - https://fontawesome.com License - https://fontawesome.com/license (Commercial License) Copyright 2022 Fonticons, Inc. --><path d="M512 255.1C512 397.4 397.4 512 256 512C245.4 512 234.9 511.4 224.6 510.1C228.6 504.4 231.9 498.1 234.4 491.3L255.4 433.6L291.1 420.6C315 411.9 329.4 388.6 327.9 364.5C326.6 340.1 311.4 318.4 288.7 308.8L166.2 257.3C158.1 253.8 148.7 257.6 145.3 265.8C141.8 273.9 145.6 283.3 153.8 286.7L236.2 321.4L144 354.1V352C144 321.1 118.9 296 88 296C57.07 296 32 321.1 32 352V380C11.61 343.3 0 301 0 256C0 114.6 114.6 0 256 0C397.4 0 512 114.6 512 256L512 255.1zM176.4 143.1C158.7 143.1 144.4 158.3 144.4 175.1C144.4 193.7 158.7 207.1 176.4 207.1C194 207.1 208.4 193.7 208.4 175.1C208.4 158.3 194 143.1 176.4 143.1zM336.4 223.1C354 223.1 368.4 209.7 368.4 191.1C368.4 174.3 354 159.1 336.4 159.1C318.7 159.1 304.4 174.3 304.4 191.1C304.4 209.7 318.7 223.1 336.4 223.1zM142.1 121.9C166.5 108.4 195.9 111.2 216.4 128.8L229.6 140.1C236.3 145.9 246.4 145.1 252.1 138.4C257.9 131.7 257.1 121.6 250.4 115.9L237.2 104.5C206.4 78.14 162.3 73.95 127.1 94.08L120.1 98.11C112.4 102.5 109.7 112.3 114.1 119.9C118.5 127.6 128.3 130.3 135.9 125.9L142.1 121.9zM112 400.6L263.8 345.4C276.3 340.9 290 347.3 294.6 359.8C299.1 372.3 292.7 386 280.2 390.6L230.4 408.7L204.3 480.4C197.4 499.4 179.4 512 159.2 512H112C85.49 512 64 490.5 64 464V352C64 338.7 74.75 328 88 328C101.3 328 112 338.7 112 352L112 400.6z"/></svg>
